X:1
T:Finn Waterside
M:4/4
L:1/8
K:D
 D3/2- E/2| F2 F3/2- E/2 D2 A3/2- F/2| E2 F2 A,4| B,3 C D2E-D| B,2 B,2 B,4-|\
 B,2 z4B,-C| D3/2- C/2 D3/2- B,/2 D3 E|F-E F2 d3 c| B3 A F2 A2| B6B,-C|\
 D3/2- C/2 D3/2- B,/2 D3 E|F-E F2 d3 c| B3 A F2 A2| B6F-A| B2B-A F2E-D|\
 E2 F2 A,4| B,3 C- D2E-D| B,2 B,2 B,4-| B,2 z4||
